packages/ffe-icons/icons/filled/md/commit.svg

<svg xmlns="http://www.w3.org/2000/svg" height="24" viewBox="0 -960 960 960" width="24"><path d="M480-290.001q-71.461 0-123.461-45.5t-64.461-114.5H130.001q-12.75 0-21.375-8.628-8.625-8.629-8.625-21.384 0-12.756 8.625-21.371 8.625-8.615 21.375-8.615h162.077q12.461-69 64.461-114.5T480-669.999q71.461 0 123.654 45.5 52.192 45.5 64.268 114.5h162.077q12.75 0 21.375 8.628 8.625 8.629 8.625 21.384 0 12.756-8.625 21.371-8.625 8.615-21.375 8.615H667.922q-12.076 69-64.268 114.5-52.193 45.5-123.654 45.5Zm0-59.998q53.846 0 91.924-38.077 38.077-38.078 38.077-91.924 0-53.846-38.077-91.924-38.078-38.077-91.924-38.077-53.846 0-91.924 38.077-38.077 38.078-38.077 91.924 0 53.846 38.077 91.924 38.078 38.077 91.924 38.077Z"/></svg>

<svg xmlns="http://www.w3.org/2000/svg" height="24" viewBox="0 -960 960 960" width="24"><path d="M480-290q-71.46 0-123.46-45.5T292.08-450H130q-12.75 0-21.37-8.63-8.63-8.63-8.63-21.38 0-12.76 8.63-21.37Q117.25-510 130-510h162.08q12.46-69 64.46-114.5Q408.54-670 480-670t123.65 45.5q52.2 45.5 64.27 114.5H830q12.75 0 21.37 8.63 8.63 8.63 8.63 21.38 0 12.76-8.63 21.37Q842.75-450 830-450H667.92q-12.07 69-64.27 114.5Q551.46-290 480-290Zm0-60q53.85 0 91.92-38.08Q610-426.15 610-480t-38.08-91.92Q533.85-610 480-610t-91.92 38.08Q350-533.85 350-480t38.08 91.92Q426.15-350 480-350Z"/></svg>
